X: 1
T: the Invitation   [F]
C: Peter Barnes
R: waltz
Z: 2014 John Chambers <jc:trillian.mit.edu>
M: 3/4
L: 1/4
K: F
C |\
"F"C2F | F2G | "C"G2F | "F"GA2 |\
A2c | "Bb"f2d | "C"c2G | "F"GA2 ||
y2 |\
"Bb"D2F | "C"G2A | "F"A2C | "Bb"DF2 |\
"F"F2A | "C"A2G | "F"F3- | F2 |]
d/e/ |\
"Dm"f2e | "Bb"f2d | "F"c2a | "C"ag2 |\
"F"a2c | "Bb"b2c | "F"a2c | "Bb"df2 ||
y2 |\
"Bb"dc2 | "C"Gc2 | "F"AC2 | "Bb"DF2 |\
"F"F2A | "C"A2G | "F"F3- | F2 |]
